X: 36464
T: Secret Of Roan Inish Theme, The
R: waltz
M: 3/4
K: Gmajor
{A}B3GA F|-F5|-F5|{A}B3GA F|-F5|{F}G5-|G5|A3 FG E-|E5-|E5|
A3 FG E-|E5-|E5|F5|~E5|D5-|D5-|D5|
{A}B3GA F|-F5|-F5|{A}B3GA F|-F5|{F}G5-|G5|
A3 F2G|E5-|E5|G3AB2|{G}A5|
{A}B3GA F|-F5|-F5|G5|-G5|G5|AB {G}A4|
G5|d5|cB G4|DG A4|GF G4|E2 e4|dc G4|AB A4|
GF G4|c5|de d4|A5|B5|B2A2G2|G5|E5|D5|
G5|d5|cB G4|DG A4|GA B4|{G}A5|GF G4|F5|D2|F5|E5-|E5||

